svg/fluentui-system-icons/ic_fluent_text_bullet_list_ltr_16_filled.svg

<svg width="16" height="16" viewBox="0 0 16 16" fill="none" xmlns="http://www.w3.org/2000/svg">
<path d="M2.25 5C2.94036 5 3.5 4.44036 3.5 3.75C3.5 3.05964 2.94036 2.5 2.25 2.5C1.55964 2.5 1 3.05964 1 3.75C1 4.44036 1.55964 5 2.25 5ZM2.25 9.25C2.94036 9.25 3.5 8.69036 3.5 8C3.5 7.30964 2.94036 6.75 2.25 6.75C1.55964 6.75 1 7.30964 1 8C1 8.69036 1.55964 9.25 2.25 9.25ZM3.5 12.25C3.5 12.9404 2.94036 13.5 2.25 13.5C1.55964 13.5 1 12.9404 1 12.25C1 11.5596 1.55964 11 2.25 11C2.94036 11 3.5 11.5596 3.5 12.25ZM5.75 3C5.33579 3 5 3.33579 5 3.75C5 4.16421 5.33579 4.5 5.75 4.5H14.25C14.6642 4.5 15 4.16421 15 3.75C15 3.33579 14.6642 3 14.25 3H5.75ZM5 8C5 7.58579 5.33579 7.25 5.75 7.25H14.25C14.6642 7.25 15 7.58579 15 8C15 8.41421 14.6642 8.75 14.25 8.75H5.75C5.33579 8.75 5 8.41421 5 8ZM5.75 11.5C5.33579 11.5 5 11.8358 5 12.25C5 12.6642 5.33579 13 5.75 13H14.25C14.6642 13 15 12.6642 15 12.25C15 11.8358 14.6642 11.5 14.25 11.5H5.75Z" fill="#212121"/>
</svg>

<svg xmlns="http://www.w3.org/2000/svg" width="16" height="16"><path d="M2.25 5a1.25 1.25 0 1 0 0-2.5 1.25 1.25 0 0 0 0 2.5Zm0 4.25a1.25 1.25 0 1 0 0-2.5 1.25 1.25 0 0 0 0 2.5Zm1.25 3a1.25 1.25 0 1 1-2.5 0 1.25 1.25 0 0 1 2.5 0ZM5.75 3a.75.75 0 0 0 0 1.5h8.5a.75.75 0 0 0 0-1.5h-8.5ZM5 8a.75.75 0 0 1 .75-.75h8.5a.75.75 0 0 1 0 1.5h-8.5A.75.75 0 0 1 5 8Zm.75 3.5a.75.75 0 0 0 0 1.5h8.5a.75.75 0 0 0 0-1.5h-8.5Z"/></svg>
